X:104
T:Net Cow Clob Rhagh
R:polka
Z:id:hn-polka-32
M:2/4
L:1/8
K:A
d/e/f/e/ fd|BG GB|AB A2 d|ed 


*****************************


14700 3 1.5694731 

<starhpop-3
BGBA|GdBd B=Bc|dG/B/ BA/B/|cd/B/ AB|c2 AB|cA A2|(3Bcd c/B/|cd/c/ BA|G4:|
|:ef/e/ ce|ef ed|ef/


*****************************


14800 3 0.47603044 

<start>
